TileServer und Tiles/svg/9/94_13.svg

<?xml version='1.0' encoding='UTF-8' standalone='no'?>
<svg xmlns="http://www.w3.org/2000/svg" width="497pt" viewBox="0 0 497 279" xmlns:xlink="http://www.w3.org/1999/xlink" height="279pt">
 <defs style="stroke:none;" overflow="visible">
  <path id="glyph0-8" d="M 2.640625 -0.625 C 2.773438 -0.625 2.910156 -0.632812 3.046875 -0.65625 C 3.191406 -0.675781 3.304688 -0.703125 3.390625 -0.734375 L 3.390625 -0.0625 C 3.296875 -0.0078125 3.160156 0.0234375 2.984375 0.046875 C 2.816406 0.078125 2.648438 0.09375 2.484375 0.09375 C 2.203125 0.09375 1.941406 0.046875 1.703125 -0.046875 C 1.472656 -0.140625 1.285156 -0.304688 1.140625 -0.546875 C 0.992188 -0.785156 0.921875 -1.125 0.921875 -1.5625 L 0.921875 -4.6875 L 0.15625 -4.6875 L 0.15625 -5.09375 L 0.9375 -5.453125 L 1.28125 -6.59375 L 1.796875 -6.59375 L 1.796875 -5.359375 L 3.34375 -5.359375 L 3.34375 -4.6875 L 1.796875 -4.6875 L 1.796875 -1.578125 C 1.796875 -1.253906 1.875 -1.015625 2.03125 -0.859375 C 2.1875 -0.703125 2.390625 -0.625 2.640625 -0.625 Z M 2.640625 -0.625 "/>
  <path id="glyph0-7" d="M 2.75 0.09375 C 2.082031 0.09375 1.546875 -0.132812 1.140625 -0.59375 C 0.742188 -1.0625 0.546875 -1.753906 0.546875 -2.671875 C 0.546875 -3.585938 0.75 -4.28125 1.15625 -4.75 C 1.5625 -5.21875 2.097656 -5.453125 2.765625 -5.453125 C 3.171875 -5.453125 3.503906 -5.375 3.765625 -5.21875 C 4.035156 -5.070312 4.253906 -4.890625 4.421875 -4.671875 L 4.484375 -4.671875 C 4.472656 -4.753906 4.457031 -4.878906 4.4375 -5.046875 C 4.425781 -5.222656 4.421875 -5.359375 4.421875 -5.453125 L 4.421875 -7.59375 L 5.296875 -7.59375 L 5.296875 0 L 4.59375 0 L 4.453125 -0.71875 L 4.421875 -0.71875 C 4.265625 -0.488281 4.050781 -0.296875 3.78125 -0.140625 C 3.507812 0.015625 3.164062 0.09375 2.75 0.09375 Z M 2.890625 -0.625 C 3.453125 -0.625 3.847656 -0.78125 4.078125 -1.09375 C 4.316406 -1.40625 4.4375 -1.875 4.4375 -2.5 L 4.4375 -2.65625 C 4.4375 -3.320312 4.320312 -3.832031 4.09375 -4.1875 C 3.875 -4.550781 3.46875 -4.734375 2.875 -4.734375 C 2.40625 -4.734375 2.050781 -4.539062 1.8125 -4.15625 C 1.570312 -3.78125 1.453125 -3.28125 1.453125 -2.65625 C 1.453125 -2.007812 1.570312 -1.507812 1.8125 -1.15625 C 2.050781 -0.800781 2.410156 -0.625 2.890625 -0.625 Z M 2.890625 -0.625 "/>
  <path id="glyph0-6" d="M 1.734375 0 L 0.84375 0 L 0.84375 -7.59375 L 1.734375 -7.59375 Z M 1.734375 0 "/>
  <path id="glyph0-5" d="M 5.515625 -2.6875 C 5.515625 -1.800781 5.285156 -1.113281 4.828125 -0.625 C 4.378906 -0.144531 3.773438 0.09375 3.015625 0.09375 C 2.535156 0.09375 2.109375 -0.0078125 1.734375 -0.21875 C 1.367188 -0.4375 1.078125 -0.753906 0.859375 -1.171875 C 0.648438 -1.585938 0.546875 -2.09375 0.546875 -2.6875 C 0.546875 -3.570312 0.769531 -4.253906 1.21875 -4.734375 C 1.664062 -5.210938 2.273438 -5.453125 3.046875 -5.453125 C 3.523438 -5.453125 3.945312 -5.34375 4.3125 -5.125 C 4.6875 -4.914062 4.976562 -4.601562 5.1875 -4.1875 C 5.40625 -3.78125 5.515625 -3.28125 5.515625 -2.6875 Z M 1.453125 -2.6875 C 1.453125 -2.050781 1.578125 -1.546875 1.828125 -1.171875 C 2.078125 -0.804688 2.476562 -0.625 3.03125 -0.625 C 3.570312 -0.625 3.96875 -0.804688 4.21875 -1.171875 C 4.46875 -1.546875 4.59375 -2.050781 4.59375 -2.6875 C 4.59375 -3.320312 4.46875 -3.816406 4.21875 -4.171875 C 3.96875 -4.535156 3.566406 -4.71875 3.015625 -4.71875 C 2.472656 -4.71875 2.078125 -4.535156 1.828125 -4.171875 C 1.578125 -3.816406 1.453125 -3.320312 1.453125 -2.6875 Z M 1.453125 -2.6875 "/>
  <path id="glyph0-4" d="M 1.734375 -7.59375 L 1.734375 -5.75 C 1.734375 -5.519531 1.726562 -5.304688 1.71875 -5.109375 C 1.707031 -4.910156 1.695312 -4.757812 1.6875 -4.65625 L 1.734375 -4.65625 C 1.878906 -4.875 2.085938 -5.0625 2.359375 -5.21875 C 2.628906 -5.375 2.972656 -5.453125 3.390625 -5.453125 C 4.054688 -5.453125 4.585938 -5.21875 4.984375 -4.75 C 5.390625 -4.289062 5.59375 -3.601562 5.59375 -2.6875 C 5.59375 -1.757812 5.390625 -1.0625 4.984375 -0.59375 C 4.578125 -0.132812 4.046875 0.09375 3.390625 0.09375 C 2.972656 0.09375 2.628906 0.0195312 2.359375 -0.125 C 2.085938 -0.28125 1.878906 -0.46875 1.734375 -0.6875 L 1.65625 -0.6875 L 1.484375 0 L 0.84375 0 L 0.84375 -7.59375 Z M 3.234375 -4.71875 C 2.671875 -4.71875 2.28125 -4.550781 2.0625 -4.21875 C 1.84375 -3.894531 1.734375 -3.390625 1.734375 -2.703125 L 1.734375 -2.671875 C 1.734375 -2.015625 1.835938 -1.507812 2.046875 -1.15625 C 2.265625 -0.800781 2.671875 -0.625 3.265625 -0.625 C 3.742188 -0.625 4.097656 -0.800781 4.328125 -1.15625 C 4.566406 -1.507812 4.6875 -2.019531 4.6875 -2.6875 C 4.6875 -4.039062 4.203125 -4.71875 3.234375 -4.71875 Z M 3.234375 -4.71875 "/>
  <path id="glyph0-3" d="M 6.734375 -5.453125 C 7.335938 -5.453125 7.789062 -5.296875 8.09375 -4.984375 C 8.394531 -4.679688 8.546875 -4.179688 8.546875 -3.484375 L 8.546875 0 L 7.671875 0 L 7.671875 -3.453125 C 7.671875 -4.296875 7.304688 -4.71875 6.578125 -4.71875 C 6.054688 -4.71875 5.679688 -4.566406 5.453125 -4.265625 C 5.234375 -3.960938 5.125 -3.523438 5.125 -2.953125 L 5.125 0 L 4.265625 0 L 4.265625 -3.453125 C 4.265625 -4.296875 3.894531 -4.71875 3.15625 -4.71875 C 2.613281 -4.71875 2.238281 -4.550781 2.03125 -4.21875 C 1.832031 -3.882812 1.734375 -3.40625 1.734375 -2.78125 L 1.734375 0 L 0.84375 0 L 0.84375 -5.359375 L 1.5625 -5.359375 L 1.6875 -4.625 L 1.734375 -4.625 C 1.898438 -4.90625 2.125 -5.113281 2.40625 -5.25 C 2.695312 -5.382812 3 -5.453125 3.3125 -5.453125 C 4.15625 -5.453125 4.703125 -5.15625 4.953125 -4.5625 L 5.015625 -4.5625 C 5.191406 -4.863281 5.429688 -5.085938 5.734375 -5.234375 C 6.046875 -5.378906 6.378906 -5.453125 6.734375 -5.453125 Z M 6.734375 -5.453125 "/>
  <path id="glyph0-2" d="M 5.328125 -5.359375 L 5.328125 0 L 4.609375 0 L 4.484375 -0.703125 L 4.4375 -0.703125 C 4.269531 -0.429688 4.03125 -0.226562 3.71875 -0.09375 C 3.414062 0.03125 3.085938 0.09375 2.734375 0.09375 C 2.085938 0.09375 1.601562 -0.0546875 1.28125 -0.359375 C 0.957031 -0.671875 0.796875 -1.164062 0.796875 -1.84375 L 0.796875 -5.359375 L 1.6875 -5.359375 L 1.6875 -1.90625 C 1.6875 -1.050781 2.082031 -0.625 2.875 -0.625 C 3.46875 -0.625 3.878906 -0.789062 4.109375 -1.125 C 4.335938 -1.457031 4.453125 -1.9375 4.453125 -2.5625 L 4.453125 -5.359375 Z M 5.328125 -5.359375 "/>
  <path id="glyph0-1" d="M 6.4375 0 L 5.53125 0 L 5.53125 -3.328125 L 1.875 -3.328125 L 1.875 0 L 0.96875 0 L 0.96875 -7.140625 L 1.875 -7.140625 L 1.875 -4.125 L 5.53125 -4.125 L 5.53125 -7.140625 L 6.4375 -7.140625 Z M 6.4375 0 "/>
  <path id="glyph0-0" d="M 0.9375 0 L 0.9375 -7.140625 L 5.046875 -7.140625 L 5.046875 0 Z M 1.453125 -0.515625 L 4.546875 -0.515625 L 4.546875 -6.625 L 1.453125 -6.625 Z M 1.453125 -0.515625 "/>
 </defs>
 <image width="497" xlink:href="svg/9/94_13.jpg" height="279"/>
 <g>
  <path d="M 124.914062 95.003906 L 124.007812 95.003906 L 124.007812 91.675781 L 120.351562 91.675781 L 120.351562 95.003906 L 119.445312 95.003906 L 119.445312 87.863281 L 120.351562 87.863281 L 120.351562 90.878906 L 124.007812 90.878906 L 124.007812 87.863281 L 124.914062 87.863281 Z M 124.914062 95.003906 " transform=" rotate(  340 144.117 92.0023) " style="fill:none;stroke-width:3;stroke-linecap:butt;stroke-linejoin:round;stroke:rgb(100%,100%,100%);stroke-opacity:0.6;stroke-miterlimit:10;"/>
  <path d="M 131.214844 89.644531 L 131.214844 95.003906 L 130.496094 95.003906 L 130.371094 94.300781 L 130.324219 94.300781 C 130.15625 94.574219 129.917969 94.777344 129.605469 94.910156 C 129.300781 95.035156 128.972656 95.097656 128.621094 95.097656 C 127.972656 95.097656 127.488281 94.949219 127.167969 94.644531 C 126.84375 94.332031 126.683594 93.839844 126.683594 93.160156 L 126.683594 89.644531 L 127.574219 89.644531 L 127.574219 93.097656 C 127.574219 93.953125 127.96875 94.378906 128.761719 94.378906 C 129.355469 94.378906 129.765625 94.214844 129.996094 93.878906 C 130.222656 93.546875 130.339844 93.066406 130.339844 92.441406 L 130.339844 89.644531 Z M 131.214844 89.644531 " transform=" rotate(  340 144.117 92.0023) " style="fill:none;stroke-width:3;stroke-linecap:butt;stroke-linejoin:round;stroke:rgb(100%,100%,100%);stroke-opacity:0.6;stroke-miterlimit:10;"/>
  <path d="M 138.800781 89.550781 C 139.402344 89.550781 139.855469 89.707031 140.160156 90.019531 C 140.460938 90.324219 140.613281 90.824219 140.613281 91.519531 L 140.613281 95.003906 L 139.738281 95.003906 L 139.738281 91.550781 C 139.738281 90.707031 139.371094 90.285156 138.644531 90.285156 C 138.121094 90.285156 137.746094 90.4375 137.519531 90.738281 C 137.300781 91.042969 137.191406 91.480469 137.191406 92.050781 L 137.191406 95.003906 L 136.332031 95.003906 L 136.332031 91.550781 C 136.332031 90.707031 135.960938 90.285156 135.222656 90.285156 C 134.679688 90.285156 134.304688 90.453125 134.097656 90.785156 C 133.898438 91.121094 133.800781 91.597656 133.800781 92.222656 L 133.800781 95.003906 L 132.910156 95.003906 L 132.910156 89.644531 L 133.628906 89.644531 L 133.753906 90.378906 L 133.800781 90.378906 C 133.964844 90.097656 134.191406 89.890625 134.472656 89.753906 C 134.761719 89.621094 135.066406 89.550781 135.378906 89.550781 C 136.222656 89.550781 136.769531 89.847656 137.019531 90.441406 L 137.082031 90.441406 C 137.257812 90.140625 137.496094 89.917969 137.800781 89.769531 C 138.113281 89.625 138.445312 89.550781 138.800781 89.550781 Z M 138.800781 89.550781 " transform=" rotate(  340 144.117 92.0023) " style="fill:none;stroke-width:3;stroke-linecap:butt;stroke-linejoin:round;stroke:rgb(100%,100%,100%);stroke-opacity:0.6;stroke-miterlimit:10;"/>
  <path d="M 143.152344 87.410156 L 143.152344 89.253906 C 143.152344 89.484375 143.144531 89.699219 143.136719 89.894531 C 143.125 90.09375 143.113281 90.246094 143.105469 90.347656 L 143.152344 90.347656 C 143.296875 90.128906 143.503906 89.941406 143.777344 89.785156 C 144.046875 89.628906 144.390625 89.550781 144.808594 89.550781 C 145.472656 89.550781 146.003906 89.785156 146.402344 90.253906 C 146.808594 90.714844 147.011719 91.402344 147.011719 92.316406 C 147.011719 93.246094 146.808594 93.941406 146.402344 94.410156 C 145.996094 94.871094 145.464844 95.097656 144.808594 95.097656 C 144.390625 95.097656 144.046875 95.023438 143.777344 94.878906 C 143.503906 94.722656 143.296875 94.535156 143.152344 94.316406 L 143.074219 94.316406 L 142.902344 95.003906 L 142.261719 95.003906 L 142.261719 87.410156 Z M 144.652344 90.285156 C 144.089844 90.285156 143.699219 90.453125 143.480469 90.785156 C 143.261719 91.109375 143.152344 91.613281 143.152344 92.300781 L 143.152344 92.332031 C 143.152344 92.988281 143.253906 93.496094 143.464844 93.847656 C 143.683594 94.203125 144.089844 94.378906 144.683594 94.378906 C 145.160156 94.378906 145.515625 94.203125 145.746094 93.847656 C 145.984375 93.496094 146.105469 92.984375 146.105469 92.316406 C 146.105469 90.964844 145.621094 90.285156 144.652344 90.285156 Z M 144.652344 90.285156 " transform=" rotate(  340 144.117 92.0023) " style="fill:none;stroke-width:3;stroke-linecap:butt;stroke-linejoin:round;stroke:rgb(100%,100%,100%);stroke-opacity:0.6;stroke-miterlimit:10;"/>
  <path d="M 153.082031 92.316406 C 153.082031 93.203125 152.851562 93.890625 152.394531 94.378906 C 151.945312 94.859375 151.339844 95.097656 150.582031 95.097656 C 150.101562 95.097656 149.675781 94.996094 149.300781 94.785156 C 148.933594 94.566406 148.644531 94.25 148.425781 93.832031 C 148.214844 93.417969 148.113281 92.910156 148.113281 92.316406 C 148.113281 91.433594 148.335938 90.75 148.785156 90.269531 C 149.230469 89.792969 149.839844 89.550781 150.613281 89.550781 C 151.089844 89.550781 151.511719 89.660156 151.878906 89.878906 C 152.253906 90.089844 152.542969 90.402344 152.753906 90.816406 C 152.972656 91.222656 153.082031 91.722656 153.082031 92.316406 Z M 149.019531 92.316406 C 149.019531 92.953125 149.144531 93.457031 149.394531 93.832031 C 149.644531 94.199219 150.042969 94.378906 150.597656 94.378906 C 151.136719 94.378906 151.535156 94.199219 151.785156 93.832031 C 152.035156 93.457031 152.160156 92.953125 152.160156 92.316406 C 152.160156 91.683594 152.035156 91.1875 151.785156 90.832031 C 151.535156 90.46875 151.132812 90.285156 150.582031 90.285156 C 150.039062 90.285156 149.644531 90.46875 149.394531 90.832031 C 149.144531 91.1875 149.019531 91.683594 149.019531 92.316406 Z M 149.019531 92.316406 " transform=" rotate(  340 144.117 92.0023) " style="fill:none;stroke-width:3;stroke-linecap:butt;stroke-linejoin:round;stroke:rgb(100%,100%,100%);stroke-opacity:0.6;stroke-miterlimit:10;"/>
  <path d="M 155.351562 95.003906 L 154.460938 95.003906 L 154.460938 87.410156 L 155.351562 87.410156 Z M 155.351562 95.003906 " transform=" rotate(  340 144.117 92.0023) " style="fill:none;stroke-width:3;stroke-linecap:butt;stroke-linejoin:round;stroke:rgb(100%,100%,100%);stroke-opacity:0.6;stroke-miterlimit:10;"/>
  <path d="M 158.945312 95.097656 C 158.277344 95.097656 157.742188 94.871094 157.335938 94.410156 C 156.9375 93.941406 156.742188 93.25 156.742188 92.332031 C 156.742188 91.417969 156.945312 90.722656 157.351562 90.253906 C 157.757812 89.785156 158.292969 89.550781 158.960938 89.550781 C 159.367188 89.550781 159.699219 89.628906 159.960938 89.785156 C 160.230469 89.933594 160.449219 90.113281 160.617188 90.332031 L 160.679688 90.332031 C 160.667969 90.25 160.652344 90.125 160.632812 89.957031 C 160.621094 89.78125 160.617188 89.644531 160.617188 89.550781 L 160.617188 87.410156 L 161.492188 87.410156 L 161.492188 95.003906 L 160.789062 95.003906 L 160.648438 94.285156 L 160.617188 94.285156 C 160.460938 94.515625 160.246094 94.707031 159.976562 94.863281 C 159.703125 95.019531 159.359375 95.097656 158.945312 95.097656 Z M 159.085938 94.378906 C 159.648438 94.378906 160.042969 94.222656 160.273438 93.910156 C 160.511719 93.597656 160.632812 93.128906 160.632812 92.503906 L 160.632812 92.347656 C 160.632812 91.683594 160.515625 91.171875 160.289062 90.816406 C 160.070312 90.453125 159.664062 90.269531 159.070312 90.269531 C 158.601562 90.269531 158.246094 90.464844 158.007812 90.847656 C 157.765625 91.222656 157.648438 91.722656 157.648438 92.347656 C 157.648438 92.996094 157.765625 93.496094 158.007812 93.847656 C 158.246094 94.203125 158.605469 94.378906 159.085938 94.378906 Z M 159.085938 94.378906 " transform=" rotate(  340 144.117 92.0023) " style="fill:none;stroke-width:3;stroke-linecap:butt;stroke-linejoin:round;stroke:rgb(100%,100%,100%);stroke-opacity:0.6;stroke-miterlimit:10;"/>
  <path d="M 164.988281 94.378906 C 165.121094 94.378906 165.257812 94.371094 165.394531 94.347656 C 165.539062 94.328125 165.652344 94.300781 165.738281 94.269531 L 165.738281 94.941406 C 165.644531 94.996094 165.507812 95.027344 165.332031 95.050781 C 165.164062 95.082031 164.996094 95.097656 164.832031 95.097656 C 164.550781 95.097656 164.289062 95.050781 164.050781 94.957031 C 163.820312 94.863281 163.632812 94.699219 163.488281 94.457031 C 163.339844 94.21875 163.269531 93.878906 163.269531 93.441406 L 163.269531 90.316406 L 162.503906 90.316406 L 162.503906 89.910156 L 163.285156 89.550781 L 163.628906 88.410156 L 164.144531 88.410156 L 164.144531 89.644531 L 165.691406 89.644531 L 165.691406 90.316406 L 164.144531 90.316406 L 164.144531 93.425781 C 164.144531 93.75 164.222656 93.988281 164.378906 94.144531 C 164.535156 94.300781 164.738281 94.378906 164.988281 94.378906 Z M 164.988281 94.378906 " transform=" rotate(  340 144.117 92.0023) " style="fill:none;stroke-width:3;stroke-linecap:butt;stroke-linejoin:round;stroke:rgb(100%,100%,100%);stroke-opacity:0.6;stroke-miterlimit:10;"/>
  <g transform=" rotate(  340 144.117 92.0023) " style="fill:rgb(13.333333%,13.333333%,13.333333%);fill-opacity:1;">
   <use xlink:href="#glyph0-1" y="95.002288" x="118.47709"/>
   <use xlink:href="#glyph0-2" y="95.002288" x="125.88709"/>
   <use xlink:href="#glyph0-3" y="95.002288" x="132.06709"/>
   <use xlink:href="#glyph0-4" y="95.002288" x="141.41709"/>
   <use xlink:href="#glyph0-5" y="95.002288" x="147.56709"/>
   <use xlink:href="#glyph0-6" y="95.002288" x="153.61709"/>
   <use xlink:href="#glyph0-7" y="95.002288" x="156.19709"/>
   <use xlink:href="#glyph0-8" y="95.002288" x="162.34709"/>
  </g>
 </g>
</svg>

<svg xmlns="http://www.w3.org/2000/svg" xmlns:xlink="http://www.w3.org/1999/xlink" viewBox="0 0 497 279"> <defs overflow="visible" style="stroke:none">  <path id="h" d="M2.6-.6H3l.4-.2v.7L3 0H1.7l-.6-.5-.1-1v-3.3H.2V-5l.7-.5.4-1h.5v1h1.5v.8H1.8v3.1c0 .3 0 .6.2.7l.6.3Zm0 0"/>  <path id="g" d="M2.8 0C2 0 1.4 0 1-.5.7-1 .5-1.8.5-2.6c0-1.1.3-1.8.7-2.2.4-.5.8-.7 1.6-.7.4 0 .7.1 1 .3a2 2 0 0 1 .6.5v-2.8h.9V0h-.7l-.1-.7a2 2 0 0 1-.8.6l-.9.1Zm0-.5c.8-.1 1.1-.3 1.4-.6.1-.3.2-.8.2-1.4v-.2c0-.6 0-1.1-.3-1.5-.2-.4-.6-.5-1.2-.5-.5 0-.9.2-1 .5-.4.4-.5 1-.5 1.5.1.7.1 1.2.4 1.5.3.4.6.6 1 .6Zm.1-.1"/>  <path id="f" d="M1.7 0H.8v-7.6h1Zm0 0"/>  <path id="e" d="M5.5-2.7c0 .9-.2 1.7-.7 2-.4.7-1 .9-1.8.9-.5-.2-.9-.2-1.3-.4-.3-.2-.6-.6-.7-1C.6-1.6.5-2 .5-2.7c0-.9.3-1.6.7-2 .5-.5 1-.8 1.8-.8.5 0 1 .2 1.3.5.4 0 .7.4.9.9.2.2.3.7.3 1.3Zm-4 0c0 .7 0 1.2.3 1.5.3.4.7.6 1.2.6.6 0 1-.2 1.2-.6.3-.3.4-.8.4-1.5s-.1-1.1-.4-1.5c-.2-.3-.6-.5-1.2-.5-.5 0-1 .2-1.2.5-.2.4-.3.9-.3 1.5Zm0 0"/>  <path id="d" d="M1.7-7.6v2.9l.7-.5c.2-.2.6-.3 1-.3.6 0 1.2.3 1.6.8.4.4.6 1.1.6 1.9C5.6-1.7 5.4-1 5-.6c-.4.6-1 .7-1.6.7-.4-.1-.8-.1-1-.2l-.7-.6-.2.7H.8v-7.6Zm1.5 2.9c-.5 0-1 .1-1.1.5-.3.2-.4.8-.4 1.5s.1 1.2.3 1.5c.3.4.7.6 1.3.6.4 0 .7-.2 1-.6.3-.3.4-.8.4-1.5 0-1.3-.5-2-1.5-2Zm0 0"/>  <path id="c" d="M6.7-5.5c.6 0 1 .2 1.4.5.3.3.4.8.4 1.5V0h-.8v-3.5c0-.8-.4-1.2-1.1-1.2-.6 0-1 .1-1.1.4C5.2-4 5-3.5 5-3v3h-.7v-3.5c0-.8-.4-1.2-1.1-1.2-.6 0-1 .1-1.2.5-.2.2-.3.8-.3 1.4V0H.8v-5.4h.8v.8h.2l.6-.7 1-.2c.7 0 1.2.3 1.6 1 .2-.5.4-.7.7-.8.3-.1.7-.2 1-.2Zm0 0"/>  <path id="b" d="M5.3-5.4V0h-.7l-.1-.7c-.3.3-.5.5-.9.6l-.9.2C2.1 0 1.6-.1 1.3-.4 1-.7.8-1.2.8-1.8v-3.6h.9v3.5c0 .8.3 1.3 1.2 1.3.6 0 1-.2 1.1-.5.3-.4.5-.9.5-1.5v-2.8Zm0 0"/>  <path id="a" d="M6.4 0h-.9v-3.3H2V0H.9v-7.1H2v3h3.5v-3h1Zm0 0"/>  <path d="M1 0v-7.1h4V0Zm.4-.5h3.1v-6.1h-3Zm.1 0"/> </defs> <image xlink:href="svg/9/94_13.jpg" width="497" height="279"/> <path d="M125 95h-1v-3.3h-3.6V95h-1v-7.1h1v3h3.6v-3h1Zm6.2-5.4V95h-.7l-.1-.7c-.3.3-.6.5-.9.6l-.9.2c-.6 0-1.1-.2-1.4-.5-.4-.3-.5-.8-.5-1.4v-3.6h.9v3.5c0 .9.4 1.3 1.2 1.3.6 0 1-.2 1.2-.5.2-.4.3-.9.3-1.5v-2.8Zm7.6 0c.6 0 1 .1 1.4.4.3.3.4.8.4 1.5V95h-.9v-3.4c0-.9-.3-1.3-1-1.3s-1.1.1-1.3.4c-.1.3-.2.8-.2 1.4V95h-.9v-3.4c0-.9-.3-1.3-1-1.3s-1.1.2-1.3.5c-.1.2-.2.8-.2 1.4V95h-.9v-5.4h.7l.2.8c.2-.4.4-.5.7-.6.3-.2.5-.2.9-.2.8 0 1.4.2 1.6.8.4-.3.6-.4.9-.6.2-.2.5-.2.9-.2Zm4.4-2.2v2.9c.1-.2.3-.3.6-.5.2-.2.6-.2 1-.2.7 0 1.2.2 1.6.7.4.4.6 1.1.6 2 0 1-.2 1.7-.6 2.1-.4.6-1 .7-1.6.7-.4 0-.8 0-1-.2l-.6-.6h-.2l-.1.7h-.6v-7.6Zm1.5 2.9c-.7 0-1 .2-1.2.5-.2.2-.3.8-.3 1.5s0 1.2.3 1.5c.2.4.5.6 1.2.6.5 0 .8-.2 1-.6.3-.3.4-.8.4-1.5 0-1.3-.5-2-1.4-2Zm8.3 2c0 .9 0 1.7-.5 2-.6.7-1.1.9-1.9.9-.6-.1-1-.2-1.3-.4-.4-.2-.7-.5-.9-1-.2-.4-.3-.8-.3-1.5 0-.9.2-1.5.7-2 .4-.5 1-.7 1.8-.7.5 0 1 0 1.4.3.3.1.5.5.8 1 .2.2.2.7.2 1.3Zm-4 0c0 .7.1 1.2.4 1.5.2.4.6.6 1.2.6.5 0 1-.2 1.2-.6.2-.3.4-.8.4-1.5 0-.6-.2-1.1-.4-1.5-.3-.3-.8-.5-1.2-.5-.6 0-1 .2-1.2.5-.4.4-.4.9-.4 1.5Zm6.4 2.7h-1v-7.6h1.1Zm3.6.1c-.8 0-1.4-.2-1.8-.7-.2-.4-.5-1.2-.5-2 0-1.1.3-1.8.7-2.2.4-.4.9-.6 1.6-.6.4 0 .7 0 1 .2a2 2 0 0 1 .6.5v-2.9h.9V95h-.7l-.2-.7a2 2 0 0 1-.6.6l-1 .1Zm0-.7c.7 0 1-.2 1.4-.5.1-.3.2-.8.2-1.4v-.2c0-.6 0-1.1-.3-1.5-.3-.3-.6-.5-1.3-.5-.4 0-.8.2-1 .5-.3.4-.5 1-.5 1.5.1.7.3 1.2.5 1.5.2.4.6.6 1 .6Zm6 0h.4l.3-.2v.7l-.4.2h-.5l-.7-.1c-.3-.1-.5-.3-.6-.5-.2-.3-.2-.6-.2-1v-3.3h-.8V90l.8-.4.3-1.2h.5v1.2h1.6v.7H164v3.1c.1.3.2.6.4.7.1.2.3.3.6.3Zm0 0" style="fill:none;stroke-width:3;stroke-linecap:butt;stroke-linejoin:round;stroke:#fff;stroke-opacity:.6;stroke-miterlimit:10" transform=" rotate(  340 144.117 92.0023) "/> <g style="fill:#222;fill-opacity:1" transform=" rotate(  340 144.117 92.0023) ">  <use xlink:href="#a" x="118.5" y="95"/>  <use xlink:href="#b" x="125.9" y="95"/>  <use xlink:href="#c" x="132.1" y="95"/>  <use xlink:href="#d" x="141.4" y="95"/>  <use xlink:href="#e" x="147.6" y="95"/>  <use xlink:href="#f" x="153.6" y="95"/>  <use xlink:href="#g" x="156.2" y="95"/>  <use xlink:href="#h" x="162.3" y="95"/> </g></svg>
